static/images/mobile/copyright/wikipedia-tagline-glk.svg

<?xml version="1.0" encoding="UTF-8"?>
<svg width="64px" height="16px" viewBox="0 0 64 16" version="1.1" xmlns="http://www.w3.org/2000/svg" xmlns:xlink="http://www.w3.org/1999/xlink">
    <title>glk-tagline</title>
    <g id="Page-1" stroke="none" stroke-width="1" fill="none" fill-rule="evenodd">
        <path d="M63.0138181,0.178533179 C63.370882,0.586620591 63.566419,1.34609636 63.6004278,2.45696047 C63.6004253,2.54765382 63.5834215,3.28445745 63.5494176,4.66737501 C63.5267443,6.20333516 63.518243,6.98548064 63.5239137,7.01381505 C63.4445631,9.46794377 63.4729011,10.7913571 63.6089291,10.9840599 L62.4357096,12.0212538 C62.1353182,11.800213 61.9964597,11.0435714 62.0191306,9.75132784 C62.0304661,9.34892206 62.0644724,8.36840545 62.1211497,6.80977679 C62.1608232,5.6932395 62.1863283,4.64471134 62.197665,3.66418627 C62.2430056,2.63833628 62.1353182,1.89869848 61.8746038,1.44527044 C62.3506919,0.906847615 62.7304292,0.484601459 63.0138181,0.178533179 M59.6301829,7.55791709 C59.6981896,7.58625997 59.9192317,7.88381487 60.2933079,8.4505842 C60.6673708,9.01169245 60.8629077,9.30641439 60.8799176,9.33475001 C60.9025812,9.60680345 60.8062304,10.0630548 60.5908627,10.7035064 C60.080761,12.2564643 58.890539,13.6110499 57.0201931,14.7672691 C56.0453424,15.3793803 55.1668449,15.7902898 54.3846995,16 C54.3733628,16 54.4158717,15.7789543 54.5122237,15.3368762 C54.6085745,14.8381124 54.6624176,14.5660614 54.6737531,14.5207232 C57.7116525,13.2454822 59.5423273,11.9164005 60.1657836,10.5334745 C60.1657776,10.5334757 59.80871,10.0262154 59.0945821,9.01169003 C59.1512546,8.56960954 59.3297878,8.08501897 59.6301829,7.55791709 M59.8002148,4.5228482 C59.8002087,4.5228482 60.1487738,4.87425348 60.8459112,5.57704591 L59.7577071,6.71625895 L58.7715222,5.67056254 L59.8002148,4.5228482 M49.0371969,6.12964924 L49.2412352,4.88841586 L49.4282696,4.34431382 L50.8055285,6.12964924 C51.1342532,6.01063236 51.6018412,5.76408642 52.2082913,5.39001023 C52.9904332,4.8969244 53.4580199,4.6078708 53.6110541,4.5228482 L53.4920324,5.29649239 C53.4240136,5.70457496 53.3900072,6.01063236 53.3900132,6.21466458 C53.2483145,6.27134792 52.9989344,6.42437601 52.6418729,6.67375128 C52.3584816,6.87779438 52.0892648,7.00815156 51.8342212,7.06482401 C52.0042494,7.64293727 52.0892648,8.18137097 52.0892684,8.68012755 C52.0892648,10.363445 51.1002468,11.4629834 49.1222122,11.9787462 C48.7934839,11.5933406 48.6291204,11.1059158 48.6291204,10.5164719 C48.6291204,9.46227665 49.0088564,8.39107636 49.7683334,7.30286866 C49.6096358,6.91180076 49.365924,6.52072802 49.0371969,6.12964924 M50.524975,8.06801275 C49.6691472,8.83315927 49.2412352,9.40843352 49.2412352,9.79383671 C49.2412352,9.99220906 49.3489202,10.0913916 49.5642952,10.0913916 C49.9723705,10.0913916 50.607155,9.78250246 51.4686523,9.16471813 C51.2532762,8.76231235 50.9387175,8.3967447 50.524975,8.06801275 M38.7842735,5.03294387 C39.1243324,5.02161445 39.3907151,5.08679304 39.583424,5.22847963 C40.0368363,5.56288233 40.4562483,6.13248824 40.8416599,6.93730101 C41.1477101,7.52674851 41.317742,8.1473646 41.3517556,8.79914927 C41.3517556,9.21289655 41.0116846,10.0205471 40.3315643,11.2221046 L39.3708832,11.6811901 L38.1381523,12.0552602 C37.5940467,12.1686148 37.0556129,12.3046403 36.52285,12.4633367 C36.0921001,12.5880268 35.5763373,12.894083 34.9755592,13.3815089 C35.0662417,12.8260702 35.2051014,12.1657806 35.392137,11.4006377 L36.6163666,10.6269924 C36.8657443,10.4172882 37.8150887,10.1820777 39.464401,9.92135972 L40.450586,9.48777932 C40.3882355,9.20439526 40.2493758,8.93801257 40.0340082,8.68862884 C38.9741385,7.48707501 38.4158668,6.92597038 38.3591944,7.00531376 C38.2118286,7.20368853 38.1211449,7.27736841 38.0871434,7.22635461 C38.1381487,6.80128033 38.370525,6.07014382 38.7842735,5.03294387 M33.462276,0.178533179 C33.81934,0.586620591 34.0148769,1.34609636 34.0488857,2.45696047 C34.0488833,2.54765382 34.0318795,3.28445745 33.9978756,4.66737501 C33.9752022,6.20333516 33.9667009,6.98548064 33.9723717,7.01381505 C33.8930211,9.46794377 33.9213591,10.7913571 34.057387,10.9840599 L32.8841676,12.0212538 C32.5837761,11.800213 32.4449177,11.0435714 32.4675886,9.75132784 C32.478924,9.34892206 32.5129304,8.36840545 32.5696077,6.80977679 C32.6092812,5.6932395 32.6347863,4.64471134 32.646123,3.66418627 C32.6914636,2.63833628 32.5837761,1.89869848 32.3230618,1.44527044 C32.7991498,0.906847615 33.1788871,0.484601459 33.462276,0.178533179 M29.0499482,11.9787462 L28.0382582,11.9787462 L28.0382582,10.5674809 L29.1009572,10.5674809 C29.3390006,10.5674821 29.6365567,10.386116 29.9936255,10.0233789 C29.8065886,9.73432767 29.7130708,9.55862745 29.713072,9.49628061 C29.7130708,8.79348456 29.8660989,8.27772177 30.1721587,7.94898983 C30.3365198,7.93765921 30.4215364,7.94332521 30.4272059,7.96599362 C30.5745645,8.42508274 30.8777877,8.98052024 31.3368768,9.63230612 C30.9287979,11.1965995 30.1664892,11.9787462 29.0499482,11.9787462 M29.6535617,3.9192347 C29.6535593,3.9192347 30.0021244,4.27064119 30.6992569,4.9734324 L29.6110529,6.11264545 L28.6248679,5.06695024 L29.6535617,3.9192347 M22.9373016,9.37725768 C23.1129958,9.3772601 23.2008453,9.38859556 23.2008513,9.41126406 C23.2348516,9.62097308 23.2716922,9.74849609 23.3113717,9.79383671 C23.6854358,10.3606109 24.2975506,10.590153 25.1477161,10.4824656 C25.5104436,10.4938022 25.8278352,10.3096007 26.0998947,9.92986222 L26.797026,9.12221046 L27.0520733,10.0063763 L27.6811918,10.5674809 L28.1232748,10.5674809 L28.1232748,11.9787462 L27.6896931,11.9787462 C27.4403034,11.9787462 27.1994246,11.876727 26.9670579,11.6726888 L26.2444215,10.9925612 C26.0857166,11.6840242 25.6436349,12.0297551 24.9181728,12.0297551 C24.4024027,12.0297551 23.7449473,11.7718737 22.9458029,11.2561109 C22.8947879,11.4261428 22.6539103,11.6131773 22.2231677,11.8172156 C21.90577,11.9815803 21.5628732,12.0637615 21.194475,12.0637615 C20.7183821,12.0637615 20.2819676,11.9220689 19.8852289,11.6386824 C19.698192,11.8880625 19.3921346,12.0155855 18.9670567,12.0212538 C18.7346792,12.0212538 18.5929854,12.0212538 18.5419776,12.0212538 L18.1764087,11.9787462 L17.6323067,11.9787462 L17.6323067,10.5674809 L18.18491,10.5674809 C18.655331,10.6468303 18.9245478,10.6468303 18.9925618,10.5674809 C19.3722979,10.2047486 19.621678,9.77683534 19.7407021,9.28374105 C19.922067,10.1679081 20.5058426,10.609991 21.4920311,10.6099898 C21.9454447,10.609991 22.2628375,10.4966364 22.4442097,10.269926 C22.6312394,10.0375509 22.7956029,9.73999479 22.9373016,9.37725768 M24.1870363,5.74707779 C24.187029,5.74707779 24.5355941,6.09848186 25.2327327,6.8012755 L24.1445286,7.94048854 L23.1583436,6.89479213 L24.1870363,5.74707779 M21.8916052,5.73857529 C21.8916015,5.73857529 22.2401666,6.08998057 22.9373016,6.79277299 L21.8490975,7.93198725 L20.8629126,6.88629084 L21.8916052,5.73857529 M23.0393207,3.66418627 C23.0393159,3.66418627 23.3878809,4.01559396 24.0850171,4.71838397 L22.996813,5.85759822 L22.0106281,4.81190181 L23.0393207,3.66418627 M15.1243361,8.54410204 C15.7024421,8.45908912 16.0028311,8.47892587 16.0255057,8.6036135 C16.121854,8.99468866 16.2550454,9.40843352 16.4250809,9.84484568 C16.6007763,10.2812627 16.7736423,10.5221403 16.9436779,10.5674809 L17.7598309,10.5674809 L17.7598309,11.9787462 L16.9946868,11.9787462 C16.9266704,11.9787462 16.7481373,11.9078992 16.4590873,11.7662066 C16.0396717,11.5451646 15.7761231,11.3212895 15.6684381,11.0945804 L15.5239113,11.2561109 C15.501238,11.3637984 15.3453757,11.5196607 15.0563233,11.7236977 C14.8012737,11.8937296 14.6624152,11.9787462 14.6397455,11.9787462 L13.1774712,11.9787462 L13.1774712,10.5674809 L14.231669,10.5674809 C14.3676933,10.5674821 14.6652494,9.89302289 15.1243361,8.54410204 M14.8437837,4.27630106 C14.8437825,4.27630106 15.1923476,4.62770755 15.8894802,5.33049876 L14.8012761,6.46971301 L13.8150911,5.4240166 L14.8437837,4.27630106 M13.2624878,10.5674809 L13.2624878,11.9787462 L13.015941,11.9787462 C12.0807635,11.9787462 11.4686493,11.8455548 11.1795966,11.5791709 C10.6354939,11.0520727 10.3634431,10.2869298 10.3634436,9.28374105 C10.3634431,8.86999982 10.3634431,8.14453043 10.3634436,7.10733289 C10.3634431,6.07014382 10.3634431,5.26532743 10.3634436,4.69288009 C10.3634431,2.55615511 10.2897627,1.30642164 10.1424021,0.943676068 L11.4261428,0 C11.6528503,0.572450965 11.7917095,1.44244715 11.842721,2.60998856 C11.9277349,3.78321766 11.9447381,4.63337588 11.8937306,5.16046688 C11.8597222,5.68757238 11.8455529,6.50372423 11.8512225,7.60892605 C11.8795592,8.89550369 11.9447381,9.66064658 12.0467593,9.90435714 C12.171447,10.2217512 12.293303,10.4002844 12.4123278,10.4399579 C12.7070469,10.5249744 12.9082511,10.5674821 13.015941,10.5674809 L13.2624878,10.5674809 M6.98831055,10.0318814 C6.88062175,9.86751901 6.73892875,9.72015804 6.56323083,9.58979845 C6.62557428,9.32341697 6.76726728,8.91817461 6.98831055,8.37407015 C7.73078034,8.90117203 8.55543421,9.2327333 9.46227457,9.36875639 C9.55862138,9.54445903 9.60680161,9.74566313 9.60680161,9.97236989 C9.60680161,10.2840968 9.524615,10.5731504 9.36025544,10.8395319 C8.28338343,10.8452015 7.17817737,11.1880982 6.04463363,11.8682257 C5.80092042,11.9419056 5.57704528,11.9787462 5.37300762,11.9787462 L4.98193428,11.9787462 L4.98193428,10.5674809 L5.38150927,10.5674809 C5.42685063,10.5674821 5.47786019,10.5674821 5.53453797,10.5674809 C5.73290766,10.5674821 5.95961672,10.5079719 6.21466552,10.3889477 L6.98831055,10.0318814 M3.24760903,10.5334745 C2.89620665,11.1115841 2.35777294,11.4006377 1.63230612,11.4006377 C1.33758258,11.4006377 1.04852867,11.3439605 0.765143493,11.2306059 C0.255047323,11.0265688 0,10.6184923 0,10.0063763 C0,9.66064658 0.0850156051,9.32058281 0.255047831,8.98618495 C0.974848256,8.82749094 1.5897963,8.51576641 2.09989381,8.05100896 C2.67799924,7.5522536 2.96705321,6.99114897 2.96705647,6.36769388 C2.96705321,6.3053543 2.9642194,6.24017571 2.95855482,6.17215691 C3.36095999,6.26851375 3.56216421,6.7389347 3.56216808,7.58342218 L3.56216808,7.93198725 C3.56216421,7.93199087 3.5593304,8.0425113 3.55366642,8.26354973 C3.55366267,8.96635061 3.62450923,9.45377536 3.76620634,9.72582396 C4.03825301,10.1735764 4.27629741,10.4541287 4.48034027,10.5674809 L5.2539853,10.5674809 L5.2539853,11.9787462 L4.30180673,11.9787462 C4.29046679,11.9787462 4.13743822,11.8880625 3.84272063,11.7066951 C3.44597593,11.457315 3.24760552,11.0662423 3.24760903,10.5334745 M1.29224234,9.9553661 C1.56429154,10.1083966 1.80233595,10.1849095 2.00637627,10.1849095 C2.23875074,10.1849095 2.43712104,10.0970612 2.60148785,9.92135972 C2.70917181,9.76266571 2.76301821,9.56146162 2.76301821,9.31774743 C2.76301821,9.176056 2.74317807,9.02586208 2.70350699,8.86716202 C2.59014961,9.17889017 2.11972848,9.54162486 1.29224234,9.9553661" id="glk-tagline" fill="#000000" fill-rule="nonzero"></path>
    </g>
</svg>

<svg xmlns="http://www.w3.org/2000/svg" width="64" height="16"><path fill="#000" fill-rule="nonzero" d="M63.014.179c.357.408.552 1.167.586 2.278 0 .09-.017.827-.05 2.21a117.861 117.861 0 0 0-.026 2.347c-.08 2.454-.051 3.777.085 3.97l-1.173 1.037c-.3-.22-.44-.977-.417-2.27.011-.402.045-1.383.102-2.941.04-1.117.065-2.165.077-3.146.045-1.026-.063-1.765-.323-2.219.476-.538.855-.96 1.139-1.266M59.63 7.558c.068.028.29.326.663.893.374.56.57.855.587.884.023.272-.074.728-.29 1.369-.51 1.552-1.7 2.907-3.57 4.063-.975.612-1.853 1.023-2.635 1.233-.012 0 .03-.221.127-.663.097-.499.15-.77.162-.816 3.038-1.276 4.868-2.605 5.492-3.988l-1.071-1.521c.056-.442.235-.927.535-1.454m.17-3.035 1.046 1.054-1.088 1.14-.986-1.046L59.8 4.523M49.037 6.13l.204-1.242.187-.544 1.378 1.786c.328-.12.796-.366 1.402-.74.782-.493 1.25-.782 1.403-.867l-.119.773a6.136 6.136 0 0 0-.102.919c-.142.056-.391.21-.748.459-.284.204-.553.334-.808.39.17.579.255 1.117.255 1.616 0 1.683-.989 2.783-2.967 3.299-.329-.386-.493-.873-.493-1.463 0-1.054.38-2.125 1.14-3.213a4.431 4.431 0 0 0-.732-1.173m1.488 1.938c-.856.765-1.284 1.34-1.284 1.726 0 .198.108.297.323.297.408 0 1.043-.308 1.905-.926a3.549 3.549 0 0 0-.944-1.097m-11.74-3.035c.34-.011.606.054.798.195.454.335.873.904 1.259 1.71.306.589.476 1.21.51 1.861 0 .414-.34 1.222-1.02 2.423l-.961.46-1.233.373c-.544.114-1.082.25-1.615.408-.43.125-.947.431-1.547.919.09-.556.23-1.216.416-1.981l1.224-.774c.25-.21 1.2-.445 2.848-.706l.987-.433a1.815 1.815 0 0 0-.417-.8c-1.06-1.2-1.618-1.762-1.675-1.683-.147.199-.238.272-.272.221.051-.425.284-1.156.697-2.193M33.462.179c.357.408.553 1.167.587 2.278 0 .09-.017.827-.051 2.21a117.86 117.86 0 0 0-.026 2.347c-.079 2.454-.05 3.777.085 3.97l-1.173 1.037c-.3-.22-.44-.977-.416-2.27.01-.402.045-1.383.102-2.941.04-1.117.065-2.165.076-3.146.045-1.026-.062-1.765-.323-2.219.476-.538.856-.96 1.14-1.266m-4.413 11.8h-1.012v-1.412h1.063c.238 0 .536-.18.893-.544-.187-.289-.28-.464-.28-.527 0-.703.152-1.218.458-1.547.165-.011.25-.006.255.017.148.46.45 1.015.91 1.666-.408 1.565-1.17 2.347-2.287 2.347m.604-8.06 1.045 1.054-1.088 1.14-.986-1.046 1.029-1.148m-6.717 5.458c.176 0 .264.012.264.034.034.21.07.337.11.383.374.567.987.796 1.837.688.362.012.68-.172.952-.552l.697-.808.255.884.63.561h.441v1.412h-.433c-.25 0-.49-.102-.723-.306l-.723-.68c-.158.691-.6 1.037-1.326 1.037-.516 0-1.173-.258-1.972-.774-.051.17-.292.357-.723.561-.317.165-.66.247-1.029.247-.476 0-.912-.142-1.309-.425-.187.25-.493.377-.918.382h-.425l-.366-.042h-.544v-1.412h.553c.47.08.74.08.808 0 .38-.362.629-.79.748-1.283.181.884.765 1.326 1.751 1.326.453 0 .77-.113.952-.34.187-.232.352-.53.493-.893m1.25-3.63 1.046 1.054-1.088 1.14-.987-1.046 1.029-1.148m-2.295-.008 1.045 1.054-1.088 1.139-.986-1.046 1.029-1.147m1.147-2.075 1.046 1.054-1.088 1.14-.986-1.046 1.028-1.148m-7.915 4.88c.578-.085.879-.065.902.06.096.39.229.804.4 1.24.175.437.348.678.518.723h.816v1.412h-.765c-.068 0-.247-.071-.536-.213-.42-.22-.683-.445-.79-.671l-.145.161c-.023.108-.179.264-.468.468-.255.17-.394.255-.416.255h-1.463v-1.412h1.055c.136 0 .433-.674.892-2.023m-.28-4.268 1.045 1.054-1.088 1.14-.986-1.046 1.029-1.148m-1.582 6.291v1.412h-.246c-.935 0-1.547-.133-1.836-.4-.545-.527-.817-1.292-.817-2.295a1506036.66 1506036.66 0 0 1 0-4.591c0-2.137-.073-3.387-.22-3.75L11.425 0c.227.572.366 1.442.417 2.61.085 1.173.102 2.023.05 2.55-.033.528-.047 1.344-.042 2.449.029 1.287.094 2.052.196 2.295.124.318.246.496.365.536.295.085.496.127.604.127h.246m-6.274-.535a1.74 1.74 0 0 0-.425-.442c.063-.267.204-.672.425-1.216a5.667 5.667 0 0 0 2.474.995c.097.175.145.377.145.603 0 .312-.082.601-.247.868-1.077.005-2.182.348-3.315 1.028-.244.074-.468.11-.672.11h-.391v-1.41h.553c.198 0 .425-.06.68-.18l.773-.356m-3.74.501c-.352.579-.89.868-1.616.868-.294 0-.583-.057-.867-.17-.51-.204-.765-.613-.765-1.225 0-.345.085-.685.255-1.02A3.945 3.945 0 0 0 2.1 8.051c.578-.499.867-1.06.867-1.683a2.36 2.36 0 0 0-.008-.196c.402.097.603.567.603 1.411v.349l-.008.332c0 .702.07 1.19.212 1.462.272.448.51.728.714.841h.774v1.412h-.952a6.38 6.38 0 0 1-.46-.272c-.396-.25-.594-.64-.594-1.174m-1.956-.578c.272.153.51.23.714.23.233 0 .431-.088.595-.264.108-.158.162-.36.162-.603 0-.142-.02-.292-.06-.45-.113.31-.583.674-1.41 1.087"/></svg>
